!!!OTL: 358. Die Lehre vom Kuss.
!!!COM: A. Hammerschmidt
!!!ODT: 1650
!!!ARE: Europa, Mitteleuropa, Deutschland
!!!SCT: B0358
!!!TXL: @@DE
!!!YEM: Copyright 1995, estate of Helmut Schaffrath.
**kern	**text
*ICvox	*
*Ivox	*
*M4/4	*
*met(c)	*
*clefG2	*
*k[f#]	*
*G:	*
=1	=1
{4b	Nirgends
4g	.
4dd	hin,
4dd	als
=2	=2
4cc	auf
4cc	den
2b}	Mund,
=3	=3
{4dd	da
4b	ſinkt's
8eeL	in
8ddJ	.
8ccL	des
8bJ	.
=4	=4
4.a	Her-
8b	-ʒens
2g}	Grund;
=5	=5
{4g	nicht
4g	ʒu
4cc	frei
4cc	und
=6	=6
4a	nicht
4a	ge-
4dd	-ʒwun-
4dd}	-gen,
=7	=7
{4b	nicht
4b	mit
4ee	gar
4ee	ʒu
=8	=8
4.dd	ſau-
8ee	-ler
4cc	Ʒungen,
4cc}	.
=9	=9
{4b	nicht
4cc	ʒu
4dd	we-
4dd	-nig,
=10	=10
4.cc#	nicht
8dd	ʒu
2dd}	viel:
=11	=11
{4a	Bei-
4b	-des
4cc	wird
4cc	ſonſt
=12	=12
4.b	Kin-
8cc	-der
2a}	ſpiel;
=13	=13
{4e	nicht
4f#	ʒu
4g	laut
4g	und
=14	=14
4f#	nicht
4g	ʒu
4a	lei-
4a}	-ſe,
=15	=15
{4g	bei-
4b	-der
4cc	Maß
4dd	iſt
=16	=16
4.a	rech-
8g	-te
4g	Wei-
4g}	-ſe,
==	==
!!!AGN: Liebes - Lied, Liebes - Lust, Erotik
!!!GTL: Liebeslieder - Liebeslust
!!!ONB: ESAC (Essen Associative Code) Database: BOEHME
!!!AMT: simple quadruple
!!!AIN: vox
!!!EED: Helmut Schaffrath
!!!EEV: 1.0
!!@@COMMENT:"Gedicht von Paul Fleming (f 1640). Mit dieſer Melodie in: "Erſter Theil weltlicher
!!Oden oder Liebes-Geſänge" von Andreas Hammerſchmidt. Freiberg i. S. 1650. Abtb. 1. S. 32.[...]"
!!@@END:
!!!Text: P. Fleming
!!!URL-scan: https://archive.org/details/BoehmeVtLieder1895/page/n297/mode/2up
!!!ENC: Anna Maria Matuszewska
!!!EEV: 2024/05/07
*-	*-
